X:1
T:Et incarnatus est
T:Francisco Valls (1665-1747)
T:From "Mapa ArmĨnico Prġctico" (1742)  folio 88 recto.
T:Et incarnatus est
T:Canon trocado
C:Francisco Valls (1665-1747)
Z:From "Mapa ArmĨnico Prġctico"
Z:(1742)  folio 88 recto.
%%score [ 1 2 3 4 ]
L:1/8
M:4/4
K:C
V:1 alto1 nm="P1" snm="S. &amp; T."
V:2 alto1 nm="P2" snm="S. &amp; T."
V:3 alto nm="P3" snm="A. &amp; B."
V:4 alto nm="P4" snm="A. &amp; B."
V:1
"^Soprano& Tenor" x8 |[M:4/4][K:treble-8] d8 | d4 ^c4 | d4 _B4 | A8 | z4 G4- | G4 F4- | %7
w: |Et|in- car-|na- tus|est|de|* Spi-|
 F2 F2 E2 FG | (A4 F4) | G8 | F4 F4- | F4 E4 | F4 D2 EF | G6 G2 | F8 | z4 E4- | E4 D4- | D4 ^C4 | %18
w: * ri- tu Sanc- *||to,|de Spi-|* ri|tu Sanc- * *||to|et|* ho-|* mo|
 (D8 | E6) E2 | D4 D4- | D4 ^C4 | D8 |] %23
w: fac-||tus _|_ _|est.|
V:2
"^Soprano& Tenor" x8 |[M:4/4][K:treble-8] z8 | z8 | d8 | d4 ^c4 | d4 _B4 | A8 | z4 G4- | G4 F4- | %9
w: |||Et|in- car-|na- tus|est|de|* Spi-|
 F2 F2 E2 FG | (A4 F4) | G8 | F4 F4- | F4 E4 | F4 D2 EF | G6 G2 | F8 | z4 E4- | E4 D4- | D4 ^C4 | %20
w: * ri- tu Sanc- *||to,|de Spi-|* ri|tu Sanc- * *||to|et|* ho-|* mo|
 (D8 | E6) E2 | D8 |] %23
w: fac-|* tus|est.|
V:3
"^Alto& Bass" x8 |[M:4/4][K:treble-8] z8 | F4 A2 G2 | ^F4 G4 | A8 | z4 G4 | ^C4 D2 !courtesy!=C2 | %7
w: ||Et in- car-|na- tus|est|de|Spi- ri- tu|
 B,4 C2 _B,2 | A,8 | z4 E4- | E2 DC D2 C2 | B,4 C2 _B,2 | A,4 _B,2 A,2 | G,8 | z4 F4 | E4 E4 | %16
w: Sanc- * *|to,|ex|* Ma- * ri- *|a vir- *|* gi- *|ne|et|ho- mo|
 F2 GA _B2 A2 | G4 A2 G2 | F4 F4 | E4 E4 | A4 _B2 A2 | G4 A2 G2 | F8 |] %23
w: fac- * * * *|* tus _|est, et|ho- mo|fac- * *|* tus _|est.|
V:4
"^Alto & Bass" x8 |[M:4/4][K:treble-8] z8 | z8 | z8 | F4 A2 G2 | ^F4 G4 | A8 | z4 G4 | %8
w: ||||Et in- car-|na- tus|est|de|
 ^C4 D2 !courtesy!=C2 | B,4 C2 _B,2 | A,8 | z4 E4- | E2 DC D2 C2 | B,4 C2 _B,2 | A,4 _B,2 A,2 | %15
w: Spi- ri- tu|Sanc- * *|to,|ex|* Ma- * ri- *|a vir- *|* gi- *|
 G,8 | z4 F4 | E4 E4 | F2 GA _B2 A2 | G4 A2 G2 | F8 | E6 E2 | A8 |] %23
w: ne|et|ho- mo|fac- * * * *|* tus _|est,|fac- tus|est.|

